T: Rosalie, The Prairie Flower
M: 4/4
L: 1/8
K: Gmaj
|: B>AG>F G2 E2 | D>ED<B, D4 |  B>AG>F G2 B2 | A2 E2 A4 |
B>AG>F G2 E2 | D>ED<B, D4 | E>FG>A B2 A2 | G2 D2 G4 :|
|: A2 G>A B2 d2 | A2 G>A B4 | G2 F>G A2 c2 | G2 F>G A4 |
B>AG>F G2 E2 | D>ED<B, D4 | E>FG>A B2 A2 | G4- G4 :|
